X:59
T:Roy's Museum
R:jig
C:Paul S. Cranford
O:Cape Breton Island
S:http://www.cranfordpub.com
D:currently unrecorded
B:currently unpublished in book form
Z:psc
H:                                                        copyrights Cranford Publications, SOCAN
L:1/8
Q:300
M:6/8
K:F
B|AcF AcF|BAB dcB|Afd cAF|AGG GAB|
AcF AcF|BAB dcB|[1Afd cAG|AFF F2:|[2Afd efg|aff f2||
|:g|a2 f faf|ged cAG|FAc fef|agg gfg|
a2 f faf|ged cAG|Ffd efg|aff f2:|
